!!!COM: Palestrina, Giovanni Perluigi da
!!!OPR: Repleatur os meum laude
!!!OTL: Kyrie
**kern	**kern	**kern	**kern	**kern
*Ibass	*Itenor	*Icalto	*Icant	*Icant
!Bassus	!Tenor	!Altus	!Cantus 2	!Cantus 1
*clefF4	*clefGv2	*clefG2	*clefG2	*clefG2
*k[]	*k[]	*k[]	*k[]	*k[]
*E:phr	*E:phr	*E:phr	*E:phr	*E:phr
*M4/2	*M4/2	*M4/2	*M4/2	*M4/2
=1	=1	=1	=1	=1
0r	0r	0r	0r	0e
=2	=2	=2	=2	=2
0r	0r	0r	0r	1g
.	.	.	.	1f
=3	=3	=3	=3	=3
0r	0r	0A	0r	1e
.	.	.	.	[1a
=4	=4	=4	=4	=4
0r	0r	1c	0r	2a]
.	.	.	.	2a
.	.	1B	.	2b
.	.	.	.	2g
=5	=5	=5	=5	=5
0r	0r	1A	0r	1cc
.	.	[1d	.	2b
.	.	.	.	[2a
=6	=6	=6	=6	=6
0r	0r	2d]	0r	2a]
.	.	2d	.	4g
.	.	.	.	4f
.	.	2e	.	2g
.	.	2c	.	[2e
=7	=7	=7	=7	=7
0r	0E	2.g	0r	4e]
.	.	.	.	4f
.	.	.	.	4g
.	.	4f	.	4a
.	.	1e	.	4b
.	.	.	.	4g
.	.	.	.	[2cc
=8	=8	=8	=8	=8
0r	1G	2d	0r	2cc]
.	.	1e	.	2b
.	1F	.	.	[1a
.	.	2d	.	.
=9	=9	=9	=9	=9
0AA	1E	2c	0r	2a]
.	.	4B	.	4g
.	.	4A	.	4f
.	[1A	[1c	.	[1e
=10	=10	=10	=10	=10
1C	2A]	1c]	0r	1e]
.	2A	.	.	.
1BB	2B	1d	.	2r
.	2G	.	.	2g
=11	=11	=11	=11	=11
1AA	1c	2r	0e	2a
.	.	2e	.	2a
[1E	[1B	2g	.	1b
.	.	[2g	.	.
=12	=12	=12	=12	=12
2E]	1B]	4g]	1g	1e
.	.	4f	.	.
2E	.	4e	.	.
.	.	4d	.	.
2F	1A	2c	1f	2r
2D	.	2d	.	[2a
=13	=13	=13	=13	=13
1E	1r	2B	1e	2a]
.	.	2.c	.	2g
2.F	2r	.	[1a	2f
.	.	4B	.	.
.	[2A	4A	.	2c
4E	.	4G	.	.
=14	=14	=14	=14	=14
2.D	2A]	2F	2a]	2.f
.	2F	2.A	2a	.
4C	.	.	.	4e
2BB	1G	.	2b	2d
.	.	4G	.	.
2C	.	[2G	2g	2e
=15	=15	=15	=15	=15
1AA	1A	2G]	1cc	1c
.	.	2F#	.	.
1GG	1D	2G	[1b	2r
.	.	[2d	.	[2g
=16	=16	=16	=16	=16
1G	2r	2d]	1b]	2g]
.	2G	2B	.	2e
2F	2A	1c	1a	1f
2A	[2c	.	.	.
=17	=17	=17	=17	=17
1G	2c]	2d	1r	1g
.	2B	2G	.	.
2.F	2A	2r	2r	1c
.	[2c	2c	[2a	.
4E	.	.	.	.
=18	=18	=18	=18	=18
1D	4c]	2d	2a]	2r
.	4B	.	.	.
.	4B	2f	2f	2d
.	4A	.	.	.
2.C	[1c	[1e	1g	2e
.	.	.	.	[2g
4BB	.	.	.	.
=19	=19	=19	=19	=19
1AA	1c]	2e]	1a	2g]
.	.	4d	.	2f#
.	.	4c	.	.
2GG	1r	2.B	1d	2.g
[2G	.	.	.	.
.	.	4c	.	4a
=20	=20	=20	=20	=20
2G]	0r	2d	2r	2b
2E	.	2e	2g	2.cc
1F	.	1A	2a	.
.	.	.	.	4b
.	.	.	[2cc	[2a
=21	=21	=21	=21	=21
1E	1r	2r	2cc]	2a]
.	.	1e	2b	2g#
1AA	2r	.	2a	1a
.	[2A	2c	[2cc	.
=22	=22	=22	=22	=22
1D	2A]	1d	4cc]	1f
.	.	.	4b	.
.	2F	.	4b	.
.	.	.	4a	.
2.C	1G	2e	[1cc	2r
.	.	[2c	.	[2e
4BB	.	.	.	.
=23	=23	=23	=23	=23
2AA	1A	4c]	1cc]	2e]
.	.	4d	.	.
1A	.	2e	.	2c
.	1D	2f	1r	1d
2F	.	[2d	.	.
=24	=24	=24	=24	=24
2G	1r	2d]	0r	1e
1A	.	4c	.	.
.	.	4B	.	.
.	2r	2c	.	2A
[2D	[2d	[2f	.	2a
=25	=25	=25	=25	=25
2D]	2d]	4f]	1r	2f
.	.	4e	.	.
2G	2B	2.d	.	2g
2.F	1c	.	2r	2.a
.	.	4c	.	.
.	.	[2c	[2a	.
4E	.	.	.	4g
=26	=26	=26	=26	=26
1D	2d	4c]	2a]	1f
.	.	4B	.	.
.	2D	4B	2f	.
.	.	4A	.	.
2.C	2E	[1c	1g	1e
.	[2G	.	.	.
4BB	.	.	.	.
=27	=27	=27	=27	=27
1AA	2G]	1c]	1a	2r
.	2F#	.	.	2a
2GG	2.G	1B	1d	2b
[2G	.	.	.	4dd
.	4A	.	.	4cc
=28	=28	=28	=28	=28
4G]	2B	1r	1r	4b
4F	.	.	.	4a
4E	2.c	.	.	4g
4D	.	.	.	4f
2C	.	1A	2r	2e
.	4B	.	.	.
2D	[2A	.	[2dd	2f
=29	=29	=29	=29	=29
1BB	2A]	2B	2dd]	1d
.	2G#	2d	2b	.
1AA	[1A	4c	1cc	2r
.	.	4A	.	.
.	.	2e	.	[2a
=30	=30	=30	=30	=30
2D	1A]	2d	2dd	2a]
2F	.	2d	2d	2f
1E	1r	2c	2e	1g
.	.	2B	[2g	.
=31	=31	=31	=31	=31
1D	2r	1d	2g]	1a
.	2A	.	2f#	.
[1G	2B	1r	2.g	2d
.	[2d	.	.	[2g
.	.	.	4a	.
=32	=32	=32	=32	=32
2G]	2d]	2r	2b	4g]
.	.	.	.	4f
2C	4c	2G	2.cc	4e
.	4B	.	.	4d
1F	1A	2A	.	2.c
.	.	.	4b	.
.	.	[2c	[2a	.
.	.	.	.	4d
=33	=33	=33	=33	=33
1E	2r	2c]	2a]	1e
.	1E	2B	2g#	.
2.AA	.	2.c	[1a	2e
.	[2A	.	.	[2e
4BB	.	4d	.	.
=34	=34	=34	=34	=34
2C	4A]	2e	0a]	2e]
.	4G	.	.	.
4D	4F	2f	.	4d
4E	4E	.	.	4c
4F	1D	2e	.	4d
4G	.	.	.	4e
2A	.	[2d	.	4f
.	.	.	.	4d
=35	=35	=35	=35	=35
1AA	0A	2d]	[0a	1e
.	.	2c#	.	.
1D	.	1d	.	1f
=36	=36	=36	=36	=36
0AA	0A	0c#	0a]	0e
=37	=37	=37	=37	=37
1r	0r	1A	0r	0r
1D	.	1B	.	.
=38	=38	=38	=38	=38
1E	1r	2c	0r	0r
.	.	2.B	.	.
1F	1A	.	.	.
.	.	4A	.	.
.	.	[2A	.	.
=39	=39	=39	=39	=39
1E	1B	2A]	0r	1r
.	.	2G#	.	.
2AA	1c	[1A	.	1e
2A	.	.	.	.
=40	=40	=40	=40	=40
2D	1A	2A]	0r	1f#
2D	.	2d	.	.
1G	2B	2.d	.	[1g
.	2B	.	.	.
.	.	4c	.	.
=41	=41	=41	=41	=41
1G	2d	4B	0r	1g]
.	.	4A	.	.
.	2d	2B	.	.
4C	1c	1G	.	1e
4D	.	.	.	.
4E	.	.	.	.
4F	.	.	.	.
=42	=42	=42	=42	=42
2G	1B	1r	1g	2d
2E	.	.	.	1g
1A	1r	1c	1a	.
.	.	.	.	2f#
=43	=43	=43	=43	=43
1G	0r	1d	1b	2g
.	.	.	.	2b
1E	.	1e	1g	2b
.	.	.	.	[2cc
=44	=44	=44	=44	=44
2.F	0A	0c	2a	2cc]
.	.	.	2a	1a
4G	.	.	.	.
1A	.	.	2cc	.
.	.	.	2cc	2f
=45	=45	=45	=45	=45
1G	1B	2d	1b	1g
.	.	2d	.	.
1A	1c	2f	1a	2r
.	.	[2e	.	2e
=46	=46	=46	=46	=46
1F	1A	2e]	0r	2a
.	.	2d	.	2a
2.E	[1B	1e	.	2.g
4F	.	.	.	4a
=47	=47	=47	=47	=47
0G	2B]	1d	1r	4b
.	.	.	.	4cc
.	2B	.	.	4dd
.	.	.	.	4cc
.	2d	[1G	[1g	4b
.	.	.	.	4a
.	2d	.	.	4g
.	.	.	.	4f
=48	=48	=48	=48	=48
2.C	0c	1G]	1g]	4e
.	.	.	.	4f
.	.	.	.	1g
4BB	.	.	.	.
1AA	.	2r	1a	.
.	.	2c	.	2f#
=49	=49	=49	=49	=49
1GG	1B	1d	1b	1g
1r	1r	1e	1g	2r
.	.	.	.	2c
=50	=50	=50	=50	=50
0r	0r	2c	1.a	2e
.	.	1d	.	1f
.	.	4c	2a	4e
.	.	4B	.	4d
=51	=51	=51	=51	=51
2r	1r	2A	2cc	2.e
2C	.	1G	2cc	.
.	.	.	.	4f
2E	2r	.	[1b	1g
2E	2G	[2g	.	.
=52	=52	=52	=52	=52
1G	2B	2g]	1b]	1d
.	2B	2g	.	.
2D	2.d	2.f	1a	1r
2F	.	.	.	.
.	4c	4e	.	.
=53	=53	=53	=53	=53
2G	2B	2d	0r	2r
1A	2A	2c	.	2a
.	1d	1B	.	2b
2G#	.	.	.	2b
=54	=54	=54	=54	=54
0A	[0c	1A	0r	1cc
.	.	2r	.	2a
.	.	2F	.	[2cc
=55	=55	=55	=55	=55
0F	1c]	2A	2r	4cc]
.	.	.	.	4b
.	.	2A	2f	4a
.	.	.	.	4g
.	1r	2.c	2a	2f
.	.	.	2a	2c
.	.	4B	.	.
=56	=56	=56	=56	=56
0C	0r	2A	2.cc	2.e
.	.	2G	.	.
.	.	.	4b	4d
.	.	2.c	2a	4e
.	.	.	.	4f
.	.	.	2g	[2g
.	.	4B	.	.
=57	=57	=57	=57	=57
1r	0r	1A	1cc	2g]
.	.	.	.	2f#
2r	.	[1G	[1b	2.g
2E	.	.	.	.
.	.	.	.	4f
=58	=58	=58	=58	=58
2E	2r	1G]	0b]	1e
2E	2G	.	.	.
[1G	2B	2r	.	1d
.	2B	2G	.	.
=59	=59	=59	=59	=59
1G]	2.d	2B	0r	2r
.	.	2B	.	2d
.	4c	.	.	.
1D	4B	2.d	.	2f#
.	4A	.	.	.
.	[2d	.	.	2f#
.	.	4c	.	.
=60	=60	=60	=60	=60
1.G	4d]	4B	0r	2.g
.	4c	4A	.	.
.	1B	4G	.	.
.	.	4A	.	4f
.	.	4B	.	2e
.	.	4c	.	.
2F	[2A	[2d	.	2d
=61	=61	=61	=61	=61
1E	2A]	2d]	1r	1g
.	2G	2c#	.	.
1D	1A	1d	2r	2f
.	.	.	2f	[2a
=62	=62	=62	=62	=62
0F	2r	0c	2a	4a]
.	.	.	.	4b
.	2F	.	2a	2cc
.	2A	.	2.cc	2a
.	2A	.	.	[2f
.	.	.	4b	.
=63	=63	=63	=63	=63
1C	2.c	2r	4a	2f]
.	.	.	4g	.
.	.	2.c	2.cc	4e
.	4B	.	.	4d
1C	4A	.	.	1e
.	4G	4d	4b	.
.	[2c	2e	[2a	.
=64	=64	=64	=64	=64
0D	2c]	2A	2a]	0d
.	2B	2.d	1g	.
.	1A	.	.	.
.	.	4c	.	.
.	.	2A	2f#	.
=65	=65	=65	=65	=65
0GG	0G	0B	0g	0d
=66	=66	=66	=66	=66
0r	0r	1.d	0r	0r
.	.	2c	.	.
=67	=67	=67	=67	=67
0r	0r	2.f	0r	1r
.	.	4e	.	.
.	.	2d	.	[1a
.	.	2c	.	.
=68	=68	=68	=68	=68
0r	0r	1B	0r	2a]
.	.	.	.	2g
.	.	2.A	.	2.cc
.	.	4B	.	4b
=69	=69	=69	=69	=69
0r	0r	4c	0r	2a
.	.	4d	.	.
.	.	2.e	.	2g
.	.	.	.	1f
.	.	4d	.	.
.	.	[2d	.	.
=70	=70	=70	=70	=70
0r	1.A	2d]	0r	0e
.	.	4c	.	.
.	.	4B	.	.
.	.	2c	.	.
.	2G	2B	.	.
=71	=71	=71	=71	=71
0r	2.c	2.A	0r	2.e
.	4B	4B	.	4d
.	2A	4c	.	4e
.	.	4A	.	4c
.	2G	4B	.	4d
.	.	4c	.	4e
=72	=72	=72	=72	=72
0r	1F	4d	0r	4f
.	.	4c	.	4g
.	.	4c	.	1a
.	.	8B	.	.
.	.	8A	.	.
.	1E	1B	.	.
.	.	.	.	2g#
=73	=73	=73	=73	=73
1.D	0r	1A	1.f	0a
.	.	2r	.	.
2C	.	[2A	2e	.
=74	=74	=74	=74	=74
2.F	0r	2A]	2.a	2r
.	.	2F	.	2c
4E	.	.	4g	.
2D	.	4B-	2f	2d
.	.	4A	.	.
2C	.	[2A	2e	2e
=75	=75	=75	=75	=75
1BB-	0r	2A]	1d	2f
.	.	2G	.	2d
2AA	.	[1A	1c	2f
[2A	.	.	.	[2e
=76	=76	=76	=76	=76
4A]	1.c	1A]	0r	2e]
4G	.	.	.	.
2F	.	.	.	1a
1E	.	1e	.	.
.	2B	.	.	2g
=77	=77	=77	=77	=77
0C	2.e	2.g	0r	2.cc
.	4d	4f	.	4b
.	2c	2e	.	2a
.	2B	2e	.	2g
=78	=78	=78	=78	=78
1D	1A	1d	0r	1f
1E	1G	2B	.	1e
.	.	2e	.	.
=79	=79	=79	=79	=79
1F	2r	2d	1.a	2r
.	1F	2.c	.	2a
1C	.	.	.	1cc
.	.	4d	.	.
.	2E	[2e	2g	.
=80	=80	=80	=80	=80
0r	2.A	2e]	2.cc	1c
.	.	2.A	.	.
.	4G	.	4b	.
.	2F	.	2a	1c
.	.	4B	.	.
.	2E	[2c	2g	.
=81	=81	=81	=81	=81
1r	1D	2c]	1f	1d
.	.	2B	.	.
2r	2C	1c	1e	2r
[2A	[2c	.	.	2e
=82	=82	=82	=82	=82
2A]	2c]	0r	2r	2f
2G	2B	.	1d	2g
2.F	1A	.	.	[1a
.	.	.	2c	.
4E	.	.	.	.
=83	=83	=83	=83	=83
2.D	2.F	0r	2.f	0a]
4E	4G	.	4e	.
4F	1A	.	2d	.
4G	.	.	.	.
[2A	.	.	2c	.
=84	=84	=84	=84	=84
2A]	1E	2r	1B	1b
2G#	.	1e	.	.
2.A	1r	.	2A	[1cc
.	.	2c	[2a	.
4G	.	.	.	.
=85	=85	=85	=85	=85
2F	0r	2f	2a]	1cc]
2C	.	2e	2g	.
1D	.	2.d	1f	2r
.	.	.	.	[2a
.	.	4c	.	.
=86	=86	=86	=86	=86
1r	0r	1B	2.d	2a]
.	.	.	.	2g
.	.	.	4e	.
[1F	.	1A	1f	2.cc
.	.	.	.	4b
=87	=87	=87	=87	=87
2F]	0r	2r	1c	2a
2E	.	1c	.	2g
2.A	.	.	1r	2f
.	.	2c	.	2e
4G	.	.	.	.
=88	=88	=88	=88	=88
2F	2r	1c	0r	2a
2E	1c	.	.	2g
1D	.	1d	.	1f
.	2B	.	.	.
=89	=89	=89	=89	=89
2C	2.e	2G	0r	2r
4AA	.	4c	.	1a
4BB	4d	4d	.	.
4C	2c	4e	.	.
4D	.	4f	.	.
2E	2B	[2e	.	2g
=90	=90	=90	=90	=90
2.C	2A	4e]	0r	1.cc
.	.	4d	.	.
.	1G	1c	.	.
4BB	.	.	.	.
1AA	.	.	.	.
.	2F#	2A	.	2cc
=91	=91	=91	=91	=91
2GG	2G	2B	2r	2b
2AA	2c	2E	1a	2a
1E	1B	2r	.	1b
.	.	[2e	2g	.
=92	=92	=92	=92	=92
2r	2.A	2e]	2.cc	1e
2A	.	2c	.	.
.	4G	.	4b	.
2D	2F	2f	2a	1r
2E	2C	2e	2g	.
=93	=93	=93	=93	=93
2F	2D	2d	2f	1r
2G	2E	1c	1e	.
1A	1F	.	.	2r
.	.	2A	2d	[2a
=94	=94	=94	=94	=94
2AA	[0E	2.c	[0e	2a]
2.C	.	.	.	2g
.	.	8B	.	.
.	.	8A	.	.
.	.	2G	.	[1cc
4BB	.	.	.	.
[2AA	.	[2A	.	.
=95	=95	=95	=95	=95
2AA]	1E_	2A]	1e_	2cc]
2GG#	.	2B	.	2b
1AA	1E_	1c	1e_	1a
=96	=96	=96	=96	=96
0E	0E]	0B	0e]	0g#
==	==	==	==	==
*-	*-	*-	*-	*-
!!!CDT: 1525/^1526/-1594/2/2
!!!OCY: Italia
!!!AGN: Mass (Canonic)
!!!AST: renaissance, vocal
!!!ASW: Motet 1538 (Jacquet)
!!!PWK: Masses, Book 3
!!!RNB: Cadence finals: A,G,C
!!!YOR: Le Opere Complete, v. 6, p. 136
!!!YOO: Rome, Italy: Fratelli Scalera
!!!END: 1992//
!!!EED: John Miller
!!!YEC: Copyright 2000, John Miller
!!!YEN: United States of America
!!!YEM: Rights to all derivative electronic formats reserved.
!!!YEM: Refer to licensing agreement for further details.
!!!YEM: This file must be accompanied by the licensing agreement.
!!!YEM: A copy of the licensing agreement may be found at http://www.music-cog.ohio-state.edu/HumdrumDatabases/Palestrina/license.txt
!!!EMD: converted to Humdrum by Bret Aarden
